X: 1
T: Leg of the Duck
T: Wee Murdie
R: Jig
O: Ireland
M: 6/8
S: from Richard Robinson, arr. T.Traub 4-23-04
Z: Richard Robinson <URL:http://www.leeds.ac.uk/music/Info/RRTuneBk/contact.html>
F: http://www.leeds.ac.uk/music/Info/RRTuneBk/gettune/00000a91.abc
K: D
a/g/ |\
"D"fga "A"efg | "D"fef "Bm"dBA |"Em"Bee efe | "A"Bee   ede |\
"D"fga "A"efg | "D"fef "Bm"dBA | "G"Bdd dBA | "A"Bdc "D"d2 :|
|: d/e/ |\
"D"fdd "A"ede | "D"fef "Bm"dBA |"Em"Bee efe | "A"Bee   ede |\
"D"fdd "A"edd |"Bm"fef     dBA | "G"Bdd dBA | "A"Bdc "D"d2 :|
